SVG_Azure_Grouped/Application/App Service Extension.svg

<?xml version="1.0" encoding="UTF-8" standalone="no"?>
<!-- Generated by Microsoft Visio, SVG Export App Service Extension.svg Page-1 -->

<svg
   xmlns:dc="http://purl.org/dc/elements/1.1/"
   xmlns:cc="http://creativecommons.org/ns#"
   xmlns:rdf="http://www.w3.org/1999/02/22-rdf-syntax-ns#"
   xmlns:svg="http://www.w3.org/2000/svg"
   xmlns="http://www.w3.org/2000/svg"
   xmlns:sodipodi="http://sodipodi.sourceforge.net/DTD/sodipodi-0.dtd"
   xmlns:inkscape="http://www.inkscape.org/namespaces/inkscape"
   width="0.7874527in"
   height="0.78739858in"
   viewBox="0 0 56.696502 56.693008"
   xml:space="preserve"
   class="st4"
   version="1.1"
   id="svg39"
   sodipodi:docname="App Service Extension.svg"
   style="font-size:12px;overflow:visible;color-interpolation-filters:sRGB;fill:none;fill-rule:evenodd;stroke-linecap:square;stroke-miterlimit:3"
   inkscape:version="0.92.5 (2060ec1f9f, 2020-04-08)"><metadata
   id="metadata43"><rdf:RDF><cc:Work
       rdf:about=""><dc:format>image/svg+xml</dc:format><dc:type
         rdf:resource="http://purl.org/dc/dcmitype/StillImage" /></cc:Work></rdf:RDF></metadata><sodipodi:namedview
   pagecolor="#ffffff"
   bordercolor="#666666"
   borderopacity="1"
   objecttolerance="10"
   gridtolerance="10"
   guidetolerance="10"
   inkscape:pageopacity="0"
   inkscape:pageshadow="2"
   inkscape:window-width="640"
   inkscape:window-height="480"
   id="namedview41"
   showgrid="false"
   inkscape:zoom="1.4193119"
   inkscape:cx="37.795133"
   inkscape:cy="37.786205"
   inkscape:window-x="0"
   inkscape:window-y="0"
   inkscape:window-maximized="0"
   inkscape:current-layer="svg39" />
	<style
   type="text/css"
   id="style2">
	<![CDATA[
		.st1 {fill:url(#grad0-6);stroke:none;stroke-linecap:butt;stroke-width:34}
		.st2 {fill:#773adc;stroke:none;stroke-linecap:butt;stroke-width:34}
		.st3 {fill:#b3b3b3;stroke:none;stroke-linecap:butt;stroke-width:34}
		.st4 {fill:none;fill-rule:evenodd;font-size:12px;overflow:visible;stroke-linecap:square;stroke-miterlimit:3}
	]]>
	</style>

	<defs
   id="Patterns_And_Gradients">
		<linearGradient
   id="grad0-6"
   x1="-6.9383809e-09"
   y1="97.526943"
   x2="26.013891"
   y2="97.526943"
   gradientTransform="scale(0.99062457,1.0094642)"
   gradientUnits="userSpaceOnUse">
			<stop
   offset="0"
   stop-color="#32bedd"
   stop-opacity="1"
   id="stop4" />
			<stop
   offset="0.175"
   stop-color="#32caea"
   stop-opacity="1"
   id="stop6" />
			<stop
   offset="0.41"
   stop-color="#32d2f2"
   stop-opacity="1"
   id="stop8" />
			<stop
   offset="0.775"
   stop-color="#32d4f5"
   stop-opacity="1"
   id="stop10" />
		</linearGradient>
	</defs>
	<g
   id="g37"
   transform="translate(-34.000437,-34.0013)">
		<title
   id="title14">Page-1</title>
		<g
   id="group14693-1"
   transform="translate(34,-34.0157)">
			<title
   id="title16">App Service Extension.14693</title>
			<g
   id="group14694-2">
				<title
   id="title18">MsPortalFx.base.images-21</title>
				<g
   id="shape14695-3"
   transform="translate(12.6092,-11.9096)">
					<title
   id="title20">Sheet.14695</title>
					<path
   d="m 0,123.68 a 1.01049,1.02988 -180 0 0 1.01,1.03 h 23.74 a 1.01049,1.02988 -180 0 0 1.02,-1.03 V 99.48 A 1.01049,1.02988 -180 0 0 24.75,98.45 H 1.01 A 1.01049,1.02988 -180 0 0 0,99.48 Z"
   class="st1"
   id="path22"
   inkscape:connector-curvature="0"
   style="fill:url(#grad0-6);stroke:none;stroke-width:34;stroke-linecap:butt" />
				</g>
				<g
   id="shape14696-7"
   transform="translate(29.3269,-28.513)">
					<title
   id="title25">Sheet.14696</title>
					<path
   d="M 25.35,96.53 H 1 a 1.00046,1.01966 -180 0 0 -1,1.02 v 4.51 a 1.00046,1.01966 -180 0 0 1,1.02 h 17.91 a 2.0176,2.05631 0 0 1 2.02,2.06 v 18.55 a 1.00046,1.01966 -180 0 0 1,1.02 h 4.44 a 1.00046,1.01966 -180 0 0 1,-1.02 v -25.1 a 2.02094,2.05971 -180 0 0 -2.02,-2.06 z"
   class="st2"
   id="path27"
   inkscape:connector-curvature="0"
   style="fill:#773adc;stroke:none;stroke-width:34;stroke-linecap:butt" />
				</g>
				<g
   id="shape14697-9">
					<title
   id="title30">Sheet.14697</title>
					<path
   d="m 46.13,100.52 v 16.33 a 1.84085,1.87617 0 0 1 -1.84,1.88 H 7.7 A 1.84085,1.87617 0 0 1 5.86,116.85 V 81.65 A 1.84085,1.87617 0 0 1 7.7,79.78 h 18.35 a 1.00046,1.01966 -180 0 0 1,-1.02 v -3.93 a 1.00046,1.01966 -180 0 0 -1,-1.02 H 1.84 A 1.84085,1.87617 -180 0 0 0,75.68 v 47.15 a 1.84085,1.87617 -180 0 0 1.84,1.88 H 50.15 A 1.84419,1.87957 -180 0 0 52,122.83 V 100.52 A 1.00046,1.01966 -180 0 0 51,99.5 h -3.86 a 1.00046,1.01966 -180 0 0 -1.01,1.02 z"
   class="st3"
   id="path32"
   inkscape:connector-curvature="0"
   style="fill:#b3b3b3;stroke:none;stroke-width:34;stroke-linecap:butt" />
				</g>
			</g>
		</g>
	</g>
</svg>

<?xml version="1.0" encoding="UTF-8" standalone="no"?>
<!DOCTYPE svg PUBLIC "-//W3C//DTD SVG 1.1//EN" "http://www.w3.org/Graphics/SVG/1.1/DTD/svg11.dtd">
<!-- Generated by Microsoft Visio, SVG Export App Service Extension.svg Page-1 -->
<svg xmlns="http://www.w3.org/2000/svg" xmlns:xlink="http://www.w3.org/1999/xlink" xmlns:ev="http://www.w3.org/2001/xml-events"
		width="1.73185in" height="1.73206in" viewBox="0 0 124.693 124.709" xml:space="preserve" color-interpolation-filters="sRGB"
		class="st4">
	<style type="text/css">
	<![CDATA[
		.st1 {fill:url(#grad0-6);stroke:none;stroke-linecap:butt;stroke-width:34}
		.st2 {fill:#773adc;stroke:none;stroke-linecap:butt;stroke-width:34}
		.st3 {fill:#b3b3b3;stroke:none;stroke-linecap:butt;stroke-width:34}
		.st4 {fill:none;fill-rule:evenodd;font-size:12px;overflow:visible;stroke-linecap:square;stroke-miterlimit:3}
	]]>
	</style>

	<defs id="Patterns_And_Gradients">
		<linearGradient id="grad0-6" x1="0" y1="0" x2="1" y2="0" gradientTransform="rotate(-90 0.5 0.5)">
			<stop offset="0" stop-color="#32bedd" stop-opacity="1"/>
			<stop offset="0.175" stop-color="#32caea" stop-opacity="1"/>
			<stop offset="0.41" stop-color="#32d2f2" stop-opacity="1"/>
			<stop offset="0.775" stop-color="#32d4f5" stop-opacity="1"/>
		</linearGradient>
	</defs>
	<g>
		<title>Page-1</title>
		<g id="group14336-1" transform="translate(34,-34.0157)">
			<title>App Service Extension.14336</title>
			<g id="group14337-2">
				<title>MsPortalFx.base.images-21</title>
				<g id="shape14338-3" transform="translate(12.6092,-11.9096)">
					<title>Sheet.14338</title>
					<path d="M0 123.68 A1.01049 1.02988 -180 0 0 1.01 124.71 L24.75 124.71 A1.01049 1.02988 -180 0 0 25.77 123.68
								 L25.77 99.48 A1.01049 1.02988 -180 0 0 24.75 98.45 L1.01 98.45 A1.01049 1.02988 -180 0 0 0 99.48
								 L0 123.68 Z" class="st1"/>
				</g>
				<g id="shape14339-7" transform="translate(29.3269,-28.513)">
					<title>Sheet.14339</title>
					<path d="M25.35 96.53 L1 96.53 A1.00046 1.01966 -180 0 0 0 97.55 L0 102.06 A1.00046 1.01966 -180 0 0 1 103.08
								 L18.91 103.08 A2.0176 2.05631 0 0 1 20.93 105.14 L20.93 123.69 A1.00046 1.01966 -180 0 0 21.93 124.71
								 L26.37 124.71 A1.00046 1.01966 -180 0 0 27.37 123.69 L27.37 98.59 A2.02094 2.05971 -180 0 0 25.35
								 96.53 Z" class="st2"/>
				</g>
				<g id="shape14340-9">
					<title>Sheet.14340</title>
					<path d="M46.13 100.52 L46.13 116.85 A1.84085 1.87617 0 0 1 44.29 118.73 L7.7 118.73 A1.84085 1.87617 0 0 1 5.86
								 116.85 L5.86 81.65 A1.84085 1.87617 0 0 1 7.7 79.78 L26.05 79.78 A1.00046 1.01966 -180 0 0 27.05
								 78.76 L27.05 74.83 A1.00046 1.01966 -180 0 0 26.05 73.81 L1.84 73.81 A1.84085 1.87617 -180 0 0 0
								 75.68 L0 122.83 A1.84085 1.87617 -180 0 0 1.84 124.71 L50.15 124.71 A1.84419 1.87957 -180 0 0 52
								 122.83 L52 100.52 A1.00046 1.01966 -180 0 0 51 99.5 L47.14 99.5 A1.00046 1.01966 -180 0 0 46.13
								 100.52 Z" class="st3"/>
				</g>
			</g>
		</g>
	</g>
</svg>
